src/assets/icons/dzen.svg

<svg width="36" height="36" viewBox="0 0 36 36" fill="none" xmlns="http://www.w3.org/2000/svg">
<path fill-rule="evenodd" clip-rule="evenodd" d="M36.0009 18.1982V17.9993V17.8011C28.0305 17.5599 24.3857 17.3611 21.4787 14.5218C18.6402 11.6154 18.4405 7.97066 18.2 -0.00012207H18.001H17.8021C17.5616 7.97066 17.362 11.6154 14.5234 14.5218C11.6164 17.3611 7.97161 17.5599 0.00128174 17.8011V17.9993V18.1982C7.97161 18.4394 11.6164 18.6383 14.5234 21.4769C17.362 24.384 17.5616 28.0287 17.8021 35.9995H18.001H18.2C18.4405 28.0287 18.6402 24.384 21.4787 21.4769C24.3857 18.6383 28.0305 18.4394 36.0009 18.1982Z" fill="#36BA5F"/>
</svg>

<svg xmlns="http://www.w3.org/2000/svg" width="36" height="36" fill="none"><path fill="#36BA5F" fill-rule="evenodd" d="M36 18.2v-.4c-7.97-.24-11.61-.44-14.52-3.28-2.84-2.9-3.04-6.55-3.28-14.52h-.4c-.24 7.97-.44 11.62-3.28 14.52-2.9 2.84-6.55 3.04-14.52 3.28v.4c7.97.24 11.62.44 14.52 3.28 2.84 2.9 3.04 6.55 3.28 14.52h.4c.24-7.97.44-11.62 3.28-14.52 2.9-2.84 6.55-3.04 14.52-3.28Z" clip-rule="evenodd"/></svg>
